replication/atom_indices/EAS_62_atomIndicesCap.svg

<?xml version="1.0" encoding="UTF-8"?>
<svg baseProfile="full" version="1.1" viewBox="0 0 800 200" xml:space="preserve" xmlns="http://www.w3.org/2000/svg">

 <!-- END OF HEADER -->
<rect width="800" height="200" fill="#fff"> </rect>
<path class="bond-0" d="m9.0909 77.736 7.6837 4.1812" fill="none" stroke="#000" stroke-width="2px"/>
<path class="bond-0" d="m16.775 81.917 7.6836 4.1812" fill="none" stroke="#00f" stroke-width="2px"/>
<path class="bond-1" d="m33.27 95.052 2.3109 17.681" fill="none" stroke="#00f" stroke-width="2px"/>
<path class="bond-2" d="m41.048 86.596 3.7652-1.7916" fill="none" stroke="#00f" stroke-width="2px"/>
<path class="bond-2" d="m44.813 84.804 3.7651-1.7915" fill="none" stroke="#000" stroke-width="2px"/>
<path class="bond-3" d="m44.529 118.77 4.841 0.902" fill="none" stroke="#00f" stroke-width="2px"/>
<path class="bond-3" d="m49.37 119.67 4.8409 0.902" fill="none" stroke="#000" stroke-width="2px"/>
<path class="bond-3" d="m46.966 113.76 3.3886 0.632" fill="none" stroke="#00f" stroke-width="2px"/>
<path class="bond-3" d="m50.354 114.39 3.3887 0.631" fill="none" stroke="#000" stroke-width="2px"/>
<path class="bond-4" d="m65.01 117.65 7.9669-14.64" fill="none" stroke="#000" stroke-width="2px"/>
<path class="bond-5" d="m61.182 83.511 9.9911 10.548" fill="none" stroke="#000" stroke-width="2px"/>
<path class="bond-5" d="m58.78 88.787 6.9937 7.3837" fill="none" stroke="#000" stroke-width="2px"/>
<path class="bond-6" d="m83.776 97.443 9.9097-1.2952" fill="none" stroke="#000" stroke-width="2px"/>
<path class="bond-7" d="m106.29 99.531 4.995 5.2737" fill="none" stroke="#000" stroke-width="2px"/>
<path class="bond-7" d="m111.28 104.8 4.996 5.274" fill="none" stroke="#cc0" stroke-width="2px"/>
<path class="bond-8" d="m104.48 90.578 3.984-7.3203" fill="none" stroke="#000" stroke-width="2px"/>
<path class="bond-8" d="m108.47 83.257 3.983-7.3203" fill="none" stroke="#00f" stroke-width="2px"/>
<path class="bond-8" d="m110.4 90.949 2.789-5.1242" fill="none" stroke="#000" stroke-width="2px"/>
<path class="bond-8" d="m113.19 85.825 2.788-5.1242" fill="none" stroke="#00f" stroke-width="2px"/>
<path class="bond-9" d="m128.59 110.72 3.39-1.613" fill="none" stroke="#cc0" stroke-width="2px"/>
<path class="bond-9" d="m131.98 109.1 3.39-1.613" fill="none" stroke="#000" stroke-width="2px"/>
<path class="bond-10" d="m123.25 73.018 4.841 0.9019" fill="none" stroke="#00f" stroke-width="2px"/>
<path class="bond-10" d="m128.09 73.92 4.841 0.9019" fill="none" stroke="#000" stroke-width="2px"/>
<path class="bond-11" d="m147.14 71.903 9.635-7.3785" fill="none" stroke="#000" stroke-width="2px"/>
<path class="bond-12" d="m141.88 80.857 2.311 17.681" fill="none" stroke="#000" stroke-width="2px"/>
<path class="bond-12" d="m136.9 84.205 1.618 12.377" fill="none" stroke="#000" stroke-width="2px"/>
<path class="bond-13" d="m155.56 107.49 3.247 1.349" fill="none" stroke="#000" stroke-width="2px"/>
<path class="bond-14" d="m175.43 108.84 4.817-3.69" fill="none" stroke="#000" stroke-width="2px"/>
<path class="bond-14" d="m180.25 105.15 4.817-3.689" fill="none" stroke="#00f" stroke-width="2px"/>
<path class="bond-15" d="m167.5 118.14 1.155 8.84" fill="none" stroke="#000" stroke-width="2px"/>
<path class="bond-15" d="m168.66 126.98 1.156 8.841" fill="none" stroke="#f00" stroke-width="2px"/>
<path class="bond-15" d="m172.83 117.45 1.155 8.841" fill="none" stroke="#000" stroke-width="2px"/>
<path class="bond-15" d="m173.99 126.29 1.156 8.841" fill="none" stroke="#f00" stroke-width="2px"/>
<path class="bond-16" d="m190.32 92.508-1.156-8.8406" fill="none" stroke="#00f" stroke-width="2px"/>
<path class="bond-16" d="m189.17 83.668-1.155-8.8406" fill="none" stroke="#000" stroke-width="2px"/>
<path class="bond-17" d="m176.65 65.873-3.248-1.3488" fill="none" stroke="#000" stroke-width="2px"/>
<path class="bond-17" d="m174.1 70.632-2.273-0.9442" fill="none" stroke="#000" stroke-width="2px"/>
<text x="24.3227" y="95.0521" fill="#0000FF" font-family="sans-serif" font-size="8px"><tspan>N:1</tspan></text>
<text x="27.8039" y="121.687" fill="#0000FF" font-family="sans-serif" font-size="8px"><tspan>N:2</tspan></text>
<text x="54.2111" y="126.607" fill="#000000" font-family="sans-serif" font-size="8px"><tspan>C:3</tspan></text>
<text x="48.5783" y="83.5106" fill="#000000" font-family="sans-serif" font-size="8px"><tspan>C:4</tspan></text>
<text x="67.0504" y="103.013" fill="#000000" font-family="sans-serif" font-size="8px"><tspan>C:5</tspan></text>
<text x="93.6854" y="99.5313" fill="#000000" font-family="sans-serif" font-size="8px"><tspan>C:6</tspan></text>
<text x="112.453" y="119.033" fill="#CCCC00" font-family="sans-serif" font-size="8px"><tspan>S:7</tspan></text>
<text x="106.525" y="75.9369" fill="#0000FF" font-family="sans-serif" font-size="8px"><tspan>N:8</tspan></text>
<text x="132.932" y="80.8567" fill="#000000" font-family="sans-serif" font-size="8px"><tspan>C:9</tspan></text>
<text x="133.425" y="107.492" fill="#000000" font-family="sans-serif" font-size="8px"><tspan>C:10</tspan></text>
<text x="158.232" y="117.794" fill="#000000" font-family="sans-serif" font-size="8px"><tspan>C:11</tspan></text>
<text x="175.678" y="101.462" fill="#0000FF" font-family="sans-serif" font-size="8px"><tspan>NH:12</tspan></text>
<text x="176.077" y="74.827" fill="#000000" font-family="sans-serif" font-size="8px"><tspan>C:13</tspan></text>
<text x="151.27" y="64.5244" fill="#000000" font-family="sans-serif" font-size="8px"><tspan>C:14</tspan></text>
<text x="161.412" y="144.429" fill="#FF0000" font-family="sans-serif" font-size="8px"><tspan>O:15</tspan></text>
<text x="70.3745" y="194" fill="#000000" font-family="sans-serif" font-size="12px"><tspan>comp585</tspan></text>
</svg>

<?xml version='1.0' encoding='iso-8859-1'?>
<svg version='1.1' baseProfile='full'
              xmlns='http://www.w3.org/2000/svg'
                      xmlns:rdkit='http://www.rdkit.org/xml'
                      xmlns:xlink='http://www.w3.org/1999/xlink'
                  xml:space='preserve'
width='800px' height='200px' viewBox='0 0 800 200'>
<!-- END OF HEADER -->
<rect style='opacity:1.0;fill:#FFFFFF;stroke:none' width='800' height='200' x='0' y='0'> </rect>
<path class='bond-0' d='M 9.09091,77.7359 L 16.7746,81.9171' style='fill:none;fill-rule:evenodd;stroke:#000000;stroke-width:2px;stroke-linecap:butt;stroke-linejoin:miter;stroke-opacity:1' />
<path class='bond-0' d='M 16.7746,81.9171 L 24.4582,86.0983' style='fill:none;fill-rule:evenodd;stroke:#0000FF;stroke-width:2px;stroke-linecap:butt;stroke-linejoin:miter;stroke-opacity:1' />
<path class='bond-1' d='M 33.2705,95.0521 L 35.5814,112.733' style='fill:none;fill-rule:evenodd;stroke:#0000FF;stroke-width:2px;stroke-linecap:butt;stroke-linejoin:miter;stroke-opacity:1' />
<path class='bond-2' d='M 41.048,86.596 L 44.8132,84.8044' style='fill:none;fill-rule:evenodd;stroke:#0000FF;stroke-width:2px;stroke-linecap:butt;stroke-linejoin:miter;stroke-opacity:1' />
<path class='bond-2' d='M 44.8132,84.8044 L 48.5783,83.0129' style='fill:none;fill-rule:evenodd;stroke:#000000;stroke-width:2px;stroke-linecap:butt;stroke-linejoin:miter;stroke-opacity:1' />
<path class='bond-3' d='M 44.5292,118.768 L 49.3702,119.67' style='fill:none;fill-rule:evenodd;stroke:#0000FF;stroke-width:2px;stroke-linecap:butt;stroke-linejoin:miter;stroke-opacity:1' />
<path class='bond-3' d='M 49.3702,119.67 L 54.2111,120.572' style='fill:none;fill-rule:evenodd;stroke:#000000;stroke-width:2px;stroke-linecap:butt;stroke-linejoin:miter;stroke-opacity:1' />
<path class='bond-3' d='M 46.9655,113.757 L 50.3541,114.389' style='fill:none;fill-rule:evenodd;stroke:#0000FF;stroke-width:2px;stroke-linecap:butt;stroke-linejoin:miter;stroke-opacity:1' />
<path class='bond-3' d='M 50.3541,114.389 L 53.7428,115.02' style='fill:none;fill-rule:evenodd;stroke:#000000;stroke-width:2px;stroke-linecap:butt;stroke-linejoin:miter;stroke-opacity:1' />
<path class='bond-4' d='M 65.01,117.653 L 72.9769,103.013' style='fill:none;fill-rule:evenodd;stroke:#000000;stroke-width:2px;stroke-linecap:butt;stroke-linejoin:miter;stroke-opacity:1' />
<path class='bond-5' d='M 61.1815,83.5106 L 71.1726,94.0587' style='fill:none;fill-rule:evenodd;stroke:#000000;stroke-width:2px;stroke-linecap:butt;stroke-linejoin:miter;stroke-opacity:1' />
<path class='bond-5' d='M 58.7798,88.7872 L 65.7735,96.1709' style='fill:none;fill-rule:evenodd;stroke:#000000;stroke-width:2px;stroke-linecap:butt;stroke-linejoin:miter;stroke-opacity:1' />
<path class='bond-6' d='M 83.7757,97.4426 L 93.6854,96.1474' style='fill:none;fill-rule:evenodd;stroke:#000000;stroke-width:2px;stroke-linecap:butt;stroke-linejoin:miter;stroke-opacity:1' />
<path class='bond-7' d='M 106.289,99.5313 L 111.284,104.805' style='fill:none;fill-rule:evenodd;stroke:#000000;stroke-width:2px;stroke-linecap:butt;stroke-linejoin:miter;stroke-opacity:1' />
<path class='bond-7' d='M 111.284,104.805 L 116.28,110.079' style='fill:none;fill-rule:evenodd;stroke:#CCCC00;stroke-width:2px;stroke-linecap:butt;stroke-linejoin:miter;stroke-opacity:1' />
<path class='bond-8' d='M 104.484,90.5775 L 108.468,83.2572' style='fill:none;fill-rule:evenodd;stroke:#000000;stroke-width:2px;stroke-linecap:butt;stroke-linejoin:miter;stroke-opacity:1' />
<path class='bond-8' d='M 108.468,83.2572 L 112.451,75.9369' style='fill:none;fill-rule:evenodd;stroke:#0000FF;stroke-width:2px;stroke-linecap:butt;stroke-linejoin:miter;stroke-opacity:1' />
<path class='bond-8' d='M 110.398,90.9493 L 113.187,85.8251' style='fill:none;fill-rule:evenodd;stroke:#000000;stroke-width:2px;stroke-linecap:butt;stroke-linejoin:miter;stroke-opacity:1' />
<path class='bond-8' d='M 113.187,85.8251 L 115.975,80.7009' style='fill:none;fill-rule:evenodd;stroke:#0000FF;stroke-width:2px;stroke-linecap:butt;stroke-linejoin:miter;stroke-opacity:1' />
<path class='bond-9' d='M 128.587,110.718 L 131.977,109.105' style='fill:none;fill-rule:evenodd;stroke:#CCCC00;stroke-width:2px;stroke-linecap:butt;stroke-linejoin:miter;stroke-opacity:1' />
<path class='bond-9' d='M 131.977,109.105 L 135.367,107.492' style='fill:none;fill-rule:evenodd;stroke:#000000;stroke-width:2px;stroke-linecap:butt;stroke-linejoin:miter;stroke-opacity:1' />
<path class='bond-10' d='M 123.25,73.018 L 128.091,73.9199' style='fill:none;fill-rule:evenodd;stroke:#0000FF;stroke-width:2px;stroke-linecap:butt;stroke-linejoin:miter;stroke-opacity:1' />
<path class='bond-10' d='M 128.091,73.9199 L 132.932,74.8218' style='fill:none;fill-rule:evenodd;stroke:#000000;stroke-width:2px;stroke-linecap:butt;stroke-linejoin:miter;stroke-opacity:1' />
<path class='bond-11' d='M 147.14,71.9029 L 156.775,64.5244' style='fill:none;fill-rule:evenodd;stroke:#000000;stroke-width:2px;stroke-linecap:butt;stroke-linejoin:miter;stroke-opacity:1' />
<path class='bond-12' d='M 141.88,80.8567 L 144.191,98.5379' style='fill:none;fill-rule:evenodd;stroke:#000000;stroke-width:2px;stroke-linecap:butt;stroke-linejoin:miter;stroke-opacity:1' />
<path class='bond-12' d='M 136.899,84.2052 L 138.517,96.582' style='fill:none;fill-rule:evenodd;stroke:#000000;stroke-width:2px;stroke-linecap:butt;stroke-linejoin:miter;stroke-opacity:1' />
<path class='bond-13' d='M 155.556,107.492 L 158.803,108.841' style='fill:none;fill-rule:evenodd;stroke:#000000;stroke-width:2px;stroke-linecap:butt;stroke-linejoin:miter;stroke-opacity:1' />
<path class='bond-14' d='M 175.429,108.841 L 180.246,105.151' style='fill:none;fill-rule:evenodd;stroke:#000000;stroke-width:2px;stroke-linecap:butt;stroke-linejoin:miter;stroke-opacity:1' />
<path class='bond-14' d='M 180.246,105.151 L 185.063,101.462' style='fill:none;fill-rule:evenodd;stroke:#0000FF;stroke-width:2px;stroke-linecap:butt;stroke-linejoin:miter;stroke-opacity:1' />
<path class='bond-15' d='M 167.505,118.143 L 168.66,126.983' style='fill:none;fill-rule:evenodd;stroke:#000000;stroke-width:2px;stroke-linecap:butt;stroke-linejoin:miter;stroke-opacity:1' />
<path class='bond-15' d='M 168.66,126.983 L 169.816,135.824' style='fill:none;fill-rule:evenodd;stroke:#FF0000;stroke-width:2px;stroke-linecap:butt;stroke-linejoin:miter;stroke-opacity:1' />
<path class='bond-15' d='M 172.832,117.446 L 173.987,126.287' style='fill:none;fill-rule:evenodd;stroke:#000000;stroke-width:2px;stroke-linecap:butt;stroke-linejoin:miter;stroke-opacity:1' />
<path class='bond-15' d='M 173.987,126.287 L 175.143,135.128' style='fill:none;fill-rule:evenodd;stroke:#FF0000;stroke-width:2px;stroke-linecap:butt;stroke-linejoin:miter;stroke-opacity:1' />
<path class='bond-16' d='M 190.324,92.5082 L 189.168,83.6676' style='fill:none;fill-rule:evenodd;stroke:#0000FF;stroke-width:2px;stroke-linecap:butt;stroke-linejoin:miter;stroke-opacity:1' />
<path class='bond-16' d='M 189.168,83.6676 L 188.013,74.827' style='fill:none;fill-rule:evenodd;stroke:#000000;stroke-width:2px;stroke-linecap:butt;stroke-linejoin:miter;stroke-opacity:1' />
<path class='bond-17' d='M 176.648,65.8732 L 173.4,64.5244' style='fill:none;fill-rule:evenodd;stroke:#000000;stroke-width:2px;stroke-linecap:butt;stroke-linejoin:miter;stroke-opacity:1' />
<path class='bond-17' d='M 174.1,70.6323 L 171.827,69.6881' style='fill:none;fill-rule:evenodd;stroke:#000000;stroke-width:2px;stroke-linecap:butt;stroke-linejoin:miter;stroke-opacity:1' />
<text x='24.3227' y='95.0521' style='font-size:8px;font-style:normal;font-weight:normal;fill-opacity:1;stroke:none;font-family:sans-serif;text-anchor:start;fill:#0000FF' ><tspan>N:1</tspan></text>
<text x='27.8039' y='121.687' style='font-size:8px;font-style:normal;font-weight:normal;fill-opacity:1;stroke:none;font-family:sans-serif;text-anchor:start;fill:#0000FF' ><tspan>N:2</tspan></text>
<text x='54.2111' y='126.607' style='font-size:8px;font-style:normal;font-weight:normal;fill-opacity:1;stroke:none;font-family:sans-serif;text-anchor:start;fill:#000000' ><tspan>C:3</tspan></text>
<text x='48.5783' y='83.5106' style='font-size:8px;font-style:normal;font-weight:normal;fill-opacity:1;stroke:none;font-family:sans-serif;text-anchor:start;fill:#000000' ><tspan>C:4</tspan></text>
<text x='67.0504' y='103.013' style='font-size:8px;font-style:normal;font-weight:normal;fill-opacity:1;stroke:none;font-family:sans-serif;text-anchor:start;fill:#000000' ><tspan>C:5</tspan></text>
<text x='93.6854' y='99.5313' style='font-size:8px;font-style:normal;font-weight:normal;fill-opacity:1;stroke:none;font-family:sans-serif;text-anchor:start;fill:#000000' ><tspan>C:6</tspan></text>
<text x='112.453' y='119.033' style='font-size:8px;font-style:normal;font-weight:normal;fill-opacity:1;stroke:none;font-family:sans-serif;text-anchor:start;fill:#CCCC00' ><tspan>S:7</tspan></text>
<text x='106.525' y='75.9369' style='font-size:8px;font-style:normal;font-weight:normal;fill-opacity:1;stroke:none;font-family:sans-serif;text-anchor:start;fill:#0000FF' ><tspan>N:8</tspan></text>
<text x='132.932' y='80.8567' style='font-size:8px;font-style:normal;font-weight:normal;fill-opacity:1;stroke:none;font-family:sans-serif;text-anchor:start;fill:#000000' ><tspan>C:9</tspan></text>
<text x='133.425' y='107.492' style='font-size:8px;font-style:normal;font-weight:normal;fill-opacity:1;stroke:none;font-family:sans-serif;text-anchor:start;fill:#000000' ><tspan>C:10</tspan></text>
<text x='158.232' y='117.794' style='font-size:8px;font-style:normal;font-weight:normal;fill-opacity:1;stroke:none;font-family:sans-serif;text-anchor:start;fill:#000000' ><tspan>C:11</tspan></text>
<text x='175.678' y='101.462' style='font-size:8px;font-style:normal;font-weight:normal;fill-opacity:1;stroke:none;font-family:sans-serif;text-anchor:start;fill:#0000FF' ><tspan>NH:12</tspan></text>
<text x='176.077' y='74.827' style='font-size:8px;font-style:normal;font-weight:normal;fill-opacity:1;stroke:none;font-family:sans-serif;text-anchor:start;fill:#000000' ><tspan>C:13</tspan></text>
<text x='151.27' y='64.5244' style='font-size:8px;font-style:normal;font-weight:normal;fill-opacity:1;stroke:none;font-family:sans-serif;text-anchor:start;fill:#000000' ><tspan>C:14</tspan></text>
<text x='161.412' y='144.429' style='font-size:8px;font-style:normal;font-weight:normal;fill-opacity:1;stroke:none;font-family:sans-serif;text-anchor:start;fill:#FF0000' ><tspan>O:15</tspan></text>
<text x='70.3745' y='194' style='font-size:12px;font-style:normal;font-weight:normal;fill-opacity:1;stroke:none;font-family:sans-serif;text-anchor:start;fill:#000000' ><tspan>comp585</tspan></text>
</svg>
